X:165
T:Sparky                                                                                            
M:4/4                                                                                               
L:1/8                                                                                               
K:Em                                                                                                
A2| B2 AB GE EG|FD AD BD AD|B2 AB GE EG|FD AF FE E2 :|                                              
B,E GE CE AG|FA dF Gg dB|B,E GE CE AG|FA dF FE ED|                                                  
B,E GE CE AG|FA dF Gg dB|dB Gc AF DC|B,E _EF G=E E2 :|
